X:153
%%pagewidth 8in
%%vocalfont Baskerville10Pro 13
T:The healths
M:C
L:1/8
K:G
%%score 1 2
V:1 clef-treble
V:2 clef-bass octave=-1
V:1
"_mf"Bc|[GBd]4[FAd]2c2|[GB]2G4cd|"_cres."[Gce]4(B3c)&x4G2x2|[FAd]6"_p"(AB)|
w:Come,* faith, since I'm part-ing, And that God knows* when The*
V:2
z2|[G,DG]4[D,D]4|[G,,G,]6z2|[C,C]4[E,E]4|[D,D]6z2|
V:1
[EAc]4B2A2|[EGB]4(A2G2)|[FA]2[GB]2[FA]3[EG]|"_cres."([FA]4[DGB]2)[CFAc]2&x2E2x4|
w:walls of sweet Wick-ham* I shall see a-gain,* Let's
V:2
[A,EA]8|[E,E]8|[D,D]4[DA]4|[D,D]2[C,C]2[B,,B,]2[A,,A,]2|
V:1
!f![DGBd]4[FAd]2c2|[GB]2G4(cd)|[Gce]4B3c&x4G2x2|[FAd]6"_p"(AB)|
w:e'en have a fro-lic, And* drink like tall men, Till*
w:||**bold||
V:2
[G,,G,]4[D,D]4|[C,C]6z2|[C,C]4[G,DG]4|[D,D]6z2|
V:1
c3cB2A2&[EA]4x4|([EGB]4[A,DA]2)[B,DG]2|[FA]2[GB]2[FA]3G&D8|[B,G]6||
w:heads with healths go round,* Till heads with healths go round.
V:2
[A,EA]8|[E,E]4[F,F]2[G,G]2|[E,D]4[Dc]4|[G,DG]6||

